Icons/com_actionlauncher_playstore.svg

<svg viewBox="0 0 48 48"><defs><linearGradient id="linearGradient3764" x1="1" x2="47" gradientUnits="userSpaceOnUse" gradientTransform="translate(-48.000001,0.00221467)"><stop stop-color="#656565" stop-opacity="1"/><stop offset="1" stop-color="#6f6f6f" stop-opacity="1"/></linearGradient><clipPath id="clipPath-255751659"><g transform="translate(0,-1004.3622)"><rect rx="4" y="1005.36" x="1" height="46" width="46" fill="#1890d0"/></g></clipPath><clipPath id="clipPath-268686770"><g transform="translate(0,-1004.3622)"><rect rx="4" y="1005.36" x="1" height="46" width="46" fill="#1890d0"/></g></clipPath></defs><g><path d="m 1 43 l 0 0.25 c 0 2.216 1.784 4 4 4 l 38 0 c 2.216 0 4 -1.784 4 -4 l 0 -0.25 c 0 2.216 -1.784 4 -4 4 l -38 0 c -2.216 0 -4 -1.784 -4 -4 z m 0 0.5 l 0 0.5 c 0 2.216 1.784 4 4 4 l 38 0 c 2.216 0 4 -1.784 4 -4 l 0 -0.5 c 0 2.216 -1.784 4 -4 4 l -38 0 c -2.216 0 -4 -1.784 -4 -4 z" opacity="0.02"/><path d="m 1 43.25 l 0 0.25 c 0 2.216 1.784 4 4 4 l 38 0 c 2.216 0 4 -1.784 4 -4 l 0 -0.25 c 0 2.216 -1.784 4 -4 4 l -38 0 c -2.216 0 -4 -1.784 -4 -4 z" opacity="0.05"/><path d="m 1 43 l 0 0.25 c 0 2.216 1.784 4 4 4 l 38 0 c 2.216 0 4 -1.784 4 -4 l 0 -0.25 c 0 2.216 -1.784 4 -4 4 l -38 0 c -2.216 0 -4 -1.784 -4 -4 z" opacity="0.1"/></g><g><rect width="46" height="46" x="-47" y="1" rx="4" transform="matrix(0,-1,1,0,0,0)" fill="url(#linearGradient3764)" fill-opacity="1"/></g><g><g clip-path="url(#clipPath-255751659)"><g opacity="0.1"><!-- color: #6f6f6f --><g><path d="m 27 12 l 9 0 l 0 24 l -9 0 m 0 -24" fill="#000"/><path d="m 12 26 l 13 0 l 0 2 l -13 0 m 0 -2" fill="#000"/><path d="m 12 20 l 13 0 l 0 2 l -13 0 m 0 -2" fill="#000"/><path d="m 12 14 l 13 0 l 0 2 l -13 0 m 0 -2" fill="#000"/><path d="m 12 32 l 13 0 l 0 2 l -13 0 m 0 -2" fill="#000"/></g></g></g></g><g><g clip-path="url(#clipPath-268686770)"><g transform="translate(0,-1)"><!-- color: #6f6f6f --><g><path d="m 27 12 l 9 0 l 0 24 l -9 0 m 0 -24" fill="#f9f9f9"/><path d="m 12 26 l 13 0 l 0 2 l -13 0 m 0 -2" fill="#f9f9f9"/><path d="m 12 20 l 13 0 l 0 2 l -13 0 m 0 -2" fill="#f9f9f9"/><path d="m 12 14 l 13 0 l 0 2 l -13 0 m 0 -2" fill="#f9f9f9"/><path d="m 12 32 l 13 0 l 0 2 l -13 0 m 0 -2" fill="#f9f9f9"/></g></g></g></g><g><g transform="translate(0,-1004.3622)"><path d="m 1 1043.36 0 4 c 0 2.216 1.784 4 4 4 l 38 0 c 2.216 0 4 -1.784 4 -4 l 0 -4 c 0 2.216 -1.784 4 -4 4 l -38 0 c -2.216 0 -4 -1.784 -4 -4 z" opacity="0.1"/></g></g></svg>

<svg viewBox="0 0 48 48" xmlns:xlink="http://www.w3.org/1999/xlink">
 <defs>
  <linearGradient id="0">
   <stop stop-opacity="0"/>
   <stop offset="1"/>
  </linearGradient>
  <linearGradient xlink:href="#0" id="1" gradientUnits="userSpaceOnUse" gradientTransform="translate(4e-7,-48)" y1="47" x2="0" y2="1"/>
  <clipPath id="2">
   <g transform="translate(0,-1004.3622)">
    <rect rx="4" y="1005.36" x="1" height="46" width="46" fill="#1890d0"/>
   </g>
  </clipPath>
  <clipPath id="3">
   <g transform="translate(0,-1004.3622)">
    <rect rx="4" y="1005.36" x="1" height="46" width="46" fill="#1890d0"/>
   </g>
  </clipPath>
 </defs>
 <g>
  <g transform="translate(0,-1004.3622)">
   <path d="m 5,1006.3622 c -2.216,0 -4,1.784 -4,4 l 0,37.25 c 0,2.216 1.784,4 4,4 l 38,0 c 2.216,0 4,-1.784 4,-4 l 0,-37.25 c 0,-2.216 -1.784,-4 -4,-4 l -38,0 z m -4,41.5 0,0.5 c 0,2.216 1.784,4 4,4 l 38,0 c 2.216,0 4,-1.784 4,-4 l 0,-0.5 c 0,2.216 -1.784,4 -4,4 l -38,0 c -2.216,0 -4,-1.784 -4,-4 z" opacity="0.02"/>
   <path d="m 1,1047.6122 0,0.25 c 0,2.216 1.784,4 4,4 l 38,0 c 2.216,0 4,-1.784 4,-4 l 0,-0.25 c 0,2.216 -1.784,4 -4,4 l -38,0 c -2.216,0 -4,-1.784 -4,-4 z" opacity="0.05"/>
   <rect width="46" height="46" x="1" y="1005.61" rx="4" opacity="0.1"/>
  </g>
 </g>
 <g>
  <g transform="translate(0,-1004.3622)">
   <rect rx="4" y="1005.36" x="1" height="46" width="46" fill="#6f6f6f"/>
  </g>
 </g>
 <g>
  <rect transform="scale(1,-1)" width="46" height="46" x="1" y="-46.998" rx="4" opacity="0.1" fill="url(#1)"/>
 </g>
 <g>
  <g clip-path="url(#2)">
   <g opacity="0.1">
    <g>
     <path d="M 27 12 L 36 12 L 36 36 L 27 36 Z M 27 12 "/>
     <path d="M 12 26 L 25 26 L 25 28 L 12 28 Z M 12 26 "/>
     <path d="M 12 20 L 25 20 L 25 22 L 12 22 Z M 12 20 "/>
     <path d="M 12 14 L 25 14 L 25 16 L 12 16 Z M 12 14 "/>
     <path d="M 12 32 L 25 32 L 25 34 L 12 34 Z M 12 32 "/>
    </g>
   </g>
  </g>
 </g>
 <g>
  <g clip-path="url(#3)">
   <g transform="translate(0,-1)">
    <g>
     <path d="M 27 12 L 36 12 L 36 36 L 27 36 Z M 27 12 " fill="#f9f9f9"/>
     <path d="M 12 26 L 25 26 L 25 28 L 12 28 Z M 12 26 " fill="#f9f9f9"/>
     <path d="M 12 20 L 25 20 L 25 22 L 12 22 Z M 12 20 " fill="#f9f9f9"/>
     <path d="M 12 14 L 25 14 L 25 16 L 12 16 Z M 12 14 " fill="#f9f9f9"/>
     <path d="M 12 32 L 25 32 L 25 34 L 12 34 Z M 12 32 " fill="#f9f9f9"/>
    </g>
   </g>
  </g>
 </g>
 <g>
  <g transform="translate(0,-1004.3622)">
   <path d="m 1,1043.3622 0,4 c 0,2.216 1.784,4 4,4 l 38,0 c 2.216,0 4,-1.784 4,-4 l 0,-4 c 0,2.216 -1.784,4 -4,4 l -38,0 c -2.216,0 -4,-1.784 -4,-4 z" opacity="0.1"/>
  </g>
 </g>
</svg>
